svgs/opera_beta.svg

<svg width="192" height="192" viewBox="0 0 192 192" fill="none" xmlns="http://www.w3.org/2000/svg"><path d="M170 96c0 40.869-33.131 74-74 74-40.87 0-74-33.131-74-74 0-40.87 33.13-74 74-74 40.869 0 74 33.13 74 74Zm0 0c0 35.346-24.4 64-54.5 64S61 131.346 61 96m109 0c0-35.346-24.4-64-54.5-64S61 60.654 61 96m0 0c0 28.167 15.67 51 35 51s35-22.833 35-51c0-28.166-15.67-51-35-51S61 67.834 61 96Z" stroke="#000" stroke-width="12"/><path d="M63.968 75.5s6.01-16.536-1-20c-5.759-2.845-9.774 8.409-15.5 5.5-6.5-3.302-2.5-18.5-2.5-18.5" stroke="#000" stroke-width="12" stroke-linecap="round" stroke-linejoin="round"/></svg>

<svg id="vector" xmlns="http://www.w3.org/2000/svg" width="192" height="192" viewBox="0 0 192 192"><path fill="#00000000" d="M170,96C170,136.87 136.87,170 96,170C55.13,170 22,136.87 22,96C22,55.13 55.13,22 96,22C136.87,22 170,55.13 170,96ZM170,96C170,131.35 145.6,160 115.5,160C85.4,160 61,131.35 61,96M170,96C170,60.65 145.6,32 115.5,32C85.4,32 61,60.65 61,96M61,96C61,124.17 76.67,147 96,147C115.33,147 131,124.17 131,96C131,67.83 115.33,45 96,45C76.67,45 61,67.83 61,96Z" stroke-width="12" stroke="#000000" id="path_0"/><path fill="#00000000" d="M63.97,75.5C63.97,75.5 69.98,58.96 62.97,55.5C57.21,52.65 53.19,63.91 47.47,61C40.97,57.7 44.97,42.5 44.97,42.5" stroke-linejoin="round" stroke-width="12" stroke="#000000" stroke-linecap="round" id="path_1"/></svg>
